X:1
T:French Suite VI Menuet
T:BWV 817
T:J. S. Bach
%%score { ( 1 3 ) | 2 }
L:1/8
Q:1/4=184
M:3/4
K:E
V:1 treble nm="Harp"
V:3 treble 
V:2 bass 
V:1
"^Presto" GF EF GA | B2 c2 B2 | DE FG Ad | e2 f2 e2 | gf ed cB | f2 g2 f2 | B^A GF ed | c2 B4 | %8
 GF EF GA | B2 c2 B2 | DE FG Ad | e2 f2 e2 | gf ed cB | f2 g2 f2 | B^A GF ed | c2 B4 | dc Bc de | %17
 f2 g2 f2 | ag fe dc | ^Ba gf ed | ec GA Bc | =dB cA BD | EF GA Bc | F6 | GF EF GA | B2 c2 B2 | %26
 B,C DE FG | A2 B2 A2 | GB ed gf | ag fe dc | Be A/4G/4A/4G/4A/4G/4A/4G/4 FE | E6 | dc Bc de | %33
 f2 g2 f2 | ag fe dc | ^Ba gf ed | ec GA Bc | =dB cA BD | EF GA Bc | F6 | GF EF GA | B2 c2 B2 | %42
 B,C DE FG | A2 B2 A2 | GB ed gf | ag fe dc | Be A/4G/4A/4G/4A/4G/4A/4G/4 FE | !fermata!E6 |] %48
V:2
 z6 | z E, D,E, E,,2 | z6 | z E, D,E, E,,2 | z6 | z E, D,E, E,,E, | D,2 E,2 F,2 | z B, ^A,B, B,,2 | %8
 z6 | z E, D,E, E,,2 | z6 | z E, D,E, E,,2 | z6 | z E, D,E, E,,E, | D,2 E,2 F,2 | z B, ^A,B, B,,2 | %16
 z6 | z B, ^A,B, B,,2 | z6 | z C ^B,C C,2 | z6 | z A, G,A, A,,A, | G,2 F,2 E,2 | z B, A,B, B,,2 | %24
 z6 | z B, A,B, B,,2 | z6 | z B, A,B, B,,2 | z6 | z B, A,B, B,,A, | G,A, B,2 B,,2 | E,3 B,, E,,2 | %32
 z6 | z B, ^A,B, B,,2 | z6 | z C ^B,C C,2 | z6 | z A, G,A, A,,A, | G,2 F,2 E,2 | z B, A,B, B,,2 | %40
 z6 | z B, A,B, B,,2 | z6 | z B, A,B, B,,2 | z6 | z B, A,B, B,,A, | G,A, B,2 B,,2 | %47
 E,3 B,, !fermata!E,,2 |] %48
V:3
 x6 | G2 A2 G2 | x6 | G2 A2 G2 | x6 | ^A2 B2 A2 | x6 | E2 D4 | x6 | G2 A2 G2 | x6 | G2 A2 G2 | x6 | %13
 ^A2 B2 A2 | x6 | E2 D4 | x6 | d2 e2 d2 | x6 | x6 | x6 | x6 | x6 | D6 | x6 | G2 A2 G2 | x6 | %27
 F2 G2 F2 | x6 | x6 | z2 E2 D2 | z B, G,4 | x6 | d2 e2 d2 | x6 | x6 | x6 | x6 | x6 | D6 | x6 | %41
 G2 A2 G2 | x6 | F2 G2 F2 | x6 | x6 | z2 E2 D2 | z B, !fermata!G,4 |] %48

